X:1
T:Ein edler Schatz
T:Georg Vogler
T:Source : Catechismus---Würzburg---J.Volmari---1652. Editor : André Vierendeels (19/09/17).
T:Ein edler Schatz
T:©
T:©
T:©
C:Georg Vogler
Z:©
%%score [ 1 2 3 4 ]
L:1/8
Q:1/4=120
M:3/4
K:C
V:1 treble nm="Soprano" snm="S"
V:2 treble nm="Alto" snm="A"
V:3 treble-8 nm="Tenor" snm="T"
V:4 bass nm="Bass" snm="B"
V:1
 z2 z2 d2 | d4 f2 | e4 d2 | d4 B2 | A4 e2 | f4 e2 | d4 d2 | c4 A2 | c2 A2 G2 | F4 F2 | c3 d e2 | %11
w: Ein|ed- ler|Schatz der|Men- schen|ist, die|aus- ser-|wehl- te|Mut- ter|desz Her- ren|Christ, die|grüs- sen wir|
w: Was|trägt sie|auff ihr'm|Haupt und|Haar? ein|Cron von|zwölff Stern|die glan-|tzen klar, den|Mon tritt|sie- * mit|
 d4 d2 | A3 G/F/ G2 | A4 D2 | F4 G2 | A2 A2 d2 | c4 c2 | F4 A2 | B4 B2 | A3 B c2 | d4 ^c2 | d4 f2 | %22
w: mit lob'|sie * * ist|der Gött-|li- che|Gna- den voll,|die Him-|me li-|sche Kö-|ni- * gin,|die Kro-|ne al-|
w: Füs- sen,|sie\_\_\_\_\_ leuch- * tet|wie die|lie- be|Son- nen- schein|die *||||* ist||
 e4 d2 | c4 _B2 | A6 | A6 |] %26
w: ler *|* Eh-|ren.|Ein|
w: ||||
V:2
 z2 z2 F2 | F4 D2 | E2- E2 F2 | F4 E2 | E4 C2 | C4 C2 | D4 D2 | E4 C2 | F2 F2 E2 | D4 C2 | F4 G2 | %11
w: Ein|ed- let|Schatz * der|Men- schen|ist, die|aus- ser-|wehl- te|Mut- ter|desz Her- ren|Christ, die|grüs- se|
w: Sie|ist die|Schei- nen- de|Mor- gen-|stern, hat|uns zu|gut ge-|bo- ren|Chri- stum den|Herr'n den|Sohn des|
 G4 F2 | D2 E2- E2 | E4 F2 | D4 E2 | F2 F2 F2 | E4 E2 | C4 D2 | E4 E2 | F4 E2 | D2 E4 | ^F4 D2 | %22
w: wir mit|lob sie ist|der Gött-|li- che|Gna- den- voll,|die Him-|me- li-|sche Kö-|ni- gin,|die Kro-|ne al-|
w: Al- ler-|höch- sten, ihr|rei- ner|Leib bleibt|un- ver- sehrt,|||||||
 ^C4 D2 | E4 G2 | E4 E2 | ^F6 |] %26
w: ler *||Eh- ren.|Ein|
w: ||||
V:3
 z2 z2 A2 | A4 A2 | A4 A2 | A4 ^G2 | A4 A2 | A4 G2 | B4 B2 | c4 c2 | c2 c2 c2 | A4 A2 | A4 G2 | %11
w: Ein|ed- ler|Schatz der|Men- schen|ist, die|ser- wehl-|te Mut-|ter desz|Her- ren Christ,|die grüs-|sen wir|
w: Sie|ist ein|ed- le|Toch- ter|zart, desz|Vat- ters|im Him-|mel von|hoh'r Art ein|Braut des|Heyl- gen|
 B4 A2 | A2 B2- B2 | ^c4 A2 | A2- A2 c2 | A2 A2 _B2 | G4 G2 | A4 F2 | G4 G2 | A4 A2 | F2 A4 | %21
w: mit lo-|be: Sie ist|der Gött-|li- * che|Gna- den voll,|die Him-|me- li-|sche Kö-|ni- gin,|die Kro-|
w: Geis- tes|sie ist *|ü- ber|al- ler Jung-|fra- wen rein,||||||
 A4 A2 | A4 F2 | A4 d2 | ^c3 B c2 | d6 |] %26
w: ne al-|ler *|* Eh-|ren. * *|Ein|
w: |||||
V:4
 z2 z2 D,2 | D,4 D,2 | ^C,4 D,2 | D,4 E,2 | A,,4 A,2 | F,4 C,2 | G,4 G,2 |"^#" C,4 F,2 | %8
w: Ein|ed- ler|Schats der|Men- chen|ist, die|ser- wehl-|te Mut-|ter desz|
w: Ein|Für- stin|der Pro-|phe- ten|all, der|Pa- tri-|ar- chen|und Kö-|
 F,2 F,2 C,2 | F,,4 F,2 | F,4 C,2 | G,4 D,2 | F,2 E,2- E,2 | A,,4 D,2 | D,4 C,2 | F,2 D,2 _B,,2 | %16
w: Her- ren Christ,|die grüs-|sen wir|mit lo-|be: Sie ist|der Gött-|li- che|Gna- den voll,|
w: nig zu- mal|wird sie|bil- lig|ge- rüh-|met ein *|hei- li-|ge Ge-|bä- re- rin,|
 C,4 E,2 | F,4 D,2 |"^-natural" C,4 C,2 | F,,3 G,, A,,2 | _B,,2 A,,4 | D,4 D,2 | A,,4 _B,,2 | %23
w: die Him-|me- li-|sche Kö-|ni- * gin,|die Kro-|ne al-|ler *|
w: |||||||
 A,,4 G,,2 | A,,6 | D,6 |] %26
w: * Eh-|ren.||
w: |||

